X:1
T:Ov'è condotto il mio amore
T:Girolamo Scotto
T:Source : Madrigali a tre voci---Venetia---G.Scotto---1541. Editor : André Vierendeels (13/06/16).
T:Notes : Original clefs : C3, C4, F4 Editorial accidentals above the staff Original note values have been halved Text by Francesco Petrarca "Terzii tini"
T:Ov'è condotto il mio amore
T:©
T:©
T:©
T:©
T:©
T:©
C:Girolamo Scotto
Z:©
%%score [ 1 2 3 ]
L:1/8
Q:1/4=96
M:2/2
K:F
V:1 treble-8 nm="Tenor 1" snm="T 1"
V:2 treble-8 nm="Tenor 2" snm="T 2"
V:3 bass nm="Bass" snm="B"
V:1
 z8 | z8 | z4 d4 | d2 d2 e4 | d6 c2 | B2 G2 A2 A2 | G4 G4 | z2 c2 d2 A2 | B4 A2 d2 | c2 c2 d2 e2 | %10
w: ||Ov'|é con- dot-|to il|mio'a- mo- ro- so|sti- le?|A' par- lar|d'i- ra, à|ra- gio- nar di|
 f4 e4 | z2 d2 d2 d2 | _e4 d4 | z2 f2 f2 f2 | _e2 d3 c/B/ c2 | d4 c4 | c2 c2 d2 d2 | _e3 d c4 | %18
w: mor- te.|U so- no'i|ver- si,|u' son giun-|te le- * * ri-|me. Che|gen- til cor u-|di- * *|
 B2 F2 F2 F2 | c6 BA | G2 B2 B2 B2 | G2 G2 d3 c | B2 A2 G4 | A2 c4 G2 | d2 c2 d4- | d4 c4 | %26
w: a pen- so- so'e|lie- * *|to? Ov' è'l fa-|vo- leg- giar d'a-|mor le not-|* ti, d'a-|mor le not-|* ti?|
 A4 A2 A2 | c2 c2 G3 A | B2 c2 d4 | c2 d2 G2 c2 | B4 A2 d2 | d2 d2 B2 B2 | f3 e d2 c2- | %33
w: Hor non parl'|io, ne pen- so'al-|tro, che pian-|to, che pian che|pian- to. Co-|si pian- to'a l'es-|tre- * mo de|
 c2 B2 c2 B2 | A4 B2 A2 | G2 e2 f2 e2- | ed d4 c2 | d4 d4- | d4 c2 c2 | d2 c2 d4 | A2 A2 c2 c2 | %41
w: _ la mia _|vi- * *|ta, de mia vi-||ta, chieg-|* gio mer-|ced' a mor-|te, che mi so-|
 c6 B2 | A2 G2 F2 f2- | f2 e2 f4 | e8 | d4 z2 G2 | A2 c2 B2 c2 | c2 c2 d2 e2 | f4 e2 f2 | d6 c2 | %50
w: tra- g'a|si pe- no- *|* se not-||ti, che|mi so- tra- g'a|si pe- no- se|not- ti'a pe-|no- se|
 B4 A2 d2- | d2 c2 d4 | B4 A4- | A8 |] %54
w: not- * *||* ti.|_|
V:2
 z8 | z4 A4 | A2 A2 B4 | A2 B2 G3 A | B3 A/G/ F3 E | D2 E2 F4 | E8 | z2 F2 F2 F2 | D2 E2 F3 G | %9
w: |Ov'|è con- dot-|to il mio _|a- * * * mo-|ro- so sti-|le?|A' par- lar|d'i- ra, à _|
 A3 G AB c2- |"^-natural" c2 B2 c4 | z2 B2 B2 B2 | G4 G2 B2 | A6 A2 | c2 F2 G4 | A4 A4 | %16
w: ra- gio- nar di mor-|* * te.|U so- no'i|ver- si, u|son giun-|te le ri-|me. Che|
 A2 A2 B2 B2 | G4 A4 | D4 D2 D2 | E4 F4 | E2 G2 G2 G2 | E2 E2 F2 D2 | D2 D2 E4 | F2 A4 B2- | %24
w: gen- til cor u-|di- a|pen- so- so'e|lie- *|to? Ov' è'l fa-|vo- leg- giar d'a-|mor le not-|ti, d'a- mor|
 BA A4 GF | G4 A4 | F4 F2 F2 | E2 E2 E3 F | G2 E2 DEFG | A2 B4 A2- | A2 G2 A2 F2 | F2 F2 G2 G2 | %32
w: _ le not- * *|* ti?|Hor non parl'|io ne pen- so'al-|tro, che pian- * * *|to, che pian-|* * to. Co-|si pian- to'a l'es-|
 A4 B2 G2 | A2 GF E2 G2- | G2 F2 G2 F2 | E4 D2 E2 | F2 G2 E4 | D4 F4- | F4 A2 A2 | F2 F2 F4 | %40
w: tre- mo de|la mia _ _ vi-||* * de|mia vi- *|ta, chieg-|* gio mer-|ced' a- mor-|
 F4 z2 A2 | A2 A2 G2 G2 | F2 E2 D2 A2 | G4 F2 A2 | G2 G2 c2 G2 | A2 G2 F2 E2 | F2 A2 G4 | %47
w: te, che|mi so- tra- g'a|si pe- no- se|not- ti, che|mi so- tra- g'a|si pe- no- se|not- * *|
 A3 G AB c2- | c2 B2 c2 d2- | dc B4 A2- | A2 G2 A2 F2 | E4 D4 | G4 ^F4- | F8 |] %54
w: |||||* ti.|_|
V:3
 D,4 D,2 D,2 | _E,4 D,4- | D,2 C,2 B,,2 G,,2 | D,2 B,,2 C,4 | G,,3 A,, B,,2 A,,2 | B,,2 C,2 F,,4 | %6
w: Ov' è con-|dot- to|_ il mio a-|mo- ro- sti-||* * le?|
 z2 C,2 C,2 C,2 | B,,2 A,,2 B,,2 F,,2 | G,,4 A,,2 B,,2 | F,6 E,2 | D,4 C,4 | z2 G,,2 G,,2 G,,2 | %12
w: A' par- lar|d'i- r'à ra- gio-|nar di mor-|te, di|mor- te.|U so- no'i|
 C,4 G,,4 | z2 D,2 D,2 D,2 |"^b" C,2 B,,2 E,4 | D,4 F,4 | F,2 F,2 B,,2 B,,2 | C,4 F,,4 | %18
w: ver- si,|u son giun-|te le ri-|me. Che|gen- til cor u-|di- a|
 B,,4 B,,2 B,,2 | A,,3 G,, F,,4 | C,2 G,,2 G,,2 G,,2 | C,2 C,2 B,,3 A,, | G,,2 F,,2 C,4 | %23
w: pen- so- so'e|lie- * *|to? Ov' è'l fa-|vo- leg- giar d'a-|mor le not-|
 F,,4 F,,2 G,,2- | G,,2 A,,2 B,,4- | B,,4 A,,4 | D,4 D,2 D,2 | A,,2 A,,2 C,2 C,2 | G,,2 A,,2 B,,4 | %29
w: ti, d'a- mor|_ le not-|* te?|Hor non parl'|io ne pe,n- so'al-|tro, che pian-|
 A,,2 G,,4 F,,2 | G,,4 z2 D,2 |"^b""^b" D,2 D,2 E,2 E,2 |"^b" D,3 C, B,,2 E,2 | D,4 C,2 G,,2 | %34
w: to, che pian-|to. Co-|si pian- to'a l'es-|tre- mo de mia|vi- ta, mia|
 D,4 G,,2 D,2- | D,2 C,2 B,,2 C,2 | B,,2 G,,2 A,,4 | D,4 B,,4- | B,,4 F,,2 F,,2 | B,,2 A,,2 B,,4 | %40
w: vi- ta, de|_ mia vi- *||ta, chieg-|* gio mer-|ced' a- mor-|
 F,,8- | F,,4 z4 | z8 | z4 z2 F,,2 | C,2 C,2 C,4- | C,2 B,,2 A,,2 G,,2 | F,,2 F,4 E,2 | F,6 E,2 | %48
w: te,|_||che|mi so- tra-|* g'a si pen-|so- * se|not ti'a|
 D,4 C,2 B,,2- | B,,A,, G,,4 F,,2 | G,,4 D,4 | A,,4 B,,4 | G,,4 D,4- | D,8 |] %54
w: pen- so- *||se not-||* ti.|_|

